!!!OTL: FROEHLICH UND WOHLGEMUTH WANDELT DAS JUNGE BLUT
!!!ARE: Europa, Mitteleuropa, Deutschland
!!!SCT: B0293
!!!YEM: Copyright 1995, estate of Helmut Schaffrath.
**kern
*ICvox
*Ivox
*M3/8
*k[f#c#g#]
*A:
=1
{8.cc#
16b
8a
=2
8a
8e
8e}
=3
{8.dd
16cc#
8b
=4
8b
8e
8e}
=5
{8a
8cc#
8ee
=6
8.ee
16f#
8f#}
=7
{8dd
8b
8g#
=8
8.b
16a
8a}
=9
{8a
8cc#
8ee
=10
8.ee
16f#
8f#}
=11
{8dd
8b
8g#
=12
8.b
16a
8a}
==
!!!AGN: Stimmungs - Lied, Freude, Jugend
!!!ONB: ESAC (Essen Associative Code) Database: BOEHME
!!!AMT: simple triple
!!!AIN: vox
!!!EED: Helmut Schaffrath
!!!EEV: 1.0
*-
